!! 00000] TT[WS
!!!OTL: Da yandai
!!!ARE: Asia, China, Shanxi Zuoqun
!! Ethnic Group: Han
!! WII, 235 (2)
!!!SCT: J0754
!!!YEM: Copyright 1995, estate of Helmut Schaffrath.
**kern
*ICvox
*Ivox
*M2/4
*k[]
*C:
{8ee
16ee
16dd
8cc
16dd
16cc
=1
8a
8cc
4g
=2
8ee
16ee
16dd
8cc
16a
16cc
=3
2d}
=4
{8ee
16ee
16dd
8cc
16dd
16cc
=5
8a
8cc
4g
=6
16a
16a
16a
16g
8e
16g
16e
=7
2d}
=8
{8.dd
16cc
4g
=9
8.a
16cc
4g
=10
8e
16d
16e
8g
8a
=11
8r
8ee
8dd
8r}
==
!!!AGN: Xiaodiao. XÅshi, Xinminge
!!!ONB: ESAC (Essen Associative Code) Database: CHINA
!!!AMT: simple duple
!!!AIN: vox
!!!EED: Helmut Schaffrath
!!!EEV: 1.0
*-
